X: 37
T: Xiaomeme xinshang kailehua
L: 1/8
M: 2/4
K: C
d d g c/ c/ [I:setbarnb 1]| 
A G E D | 
d d g c | 
A4 | 
d d g c | 
A G E D | 
G G A E | 
D4 |]

@@@ Tune index: 8911
